!!!OTL: Op engem Baam de Kueder sötzt, S. 33
!!!id: R0050
**kern
*clefG2
*k[f#]
*G:
{16g
=1
16g
8b
16b
16b
8b
16a
=2yy
16g
=3
8g
8f#
4f#}
=4
{8cc
8cc
8cc
16b
16a
=5
8a
8g
4g}
=6
{8d
16e
16ff#
8g
8g
=7
8a
8a
8.b}
=8
{16dd
=9
8dd
8cc
8.b
16a
=10
8b
8a
4g}
=11
{4b
8.a
16f#
=12
4g}
4r
==
*-
!!!minrhy: 16
!!!meters: 2/4 ]  ZZ[5
!!!cut: Op engem Baam de Kueder sötzt, S. 33
!!!reg: Luxemburg
!!!trd: D'Fraen um Kanddaaf an der aler Zeit, Luxemburg 1929
!!!rhy1:   X_XXX_XX  X_X_X__
!!!rhy2: X_X_X_XX  X_X_X__
!!!key: R0050  16  G 2/4 ]  ZZ[5
!!!mod: HEPTATONIK IONISCH]  AMBITUS[10
!!!kad: -71311
!!!akz: 31_42_-52_53_31_
!!!fot: 'a__as'b__c__d__
!!!for: 'a__b__c__d__e__
!!!fok: '\__\__/__\__\__
!! PHRAS[VORWIEGEND VOLLTAKTIG]
!!!fkt: Liebeslied
!! RUDEN, J.M.:
!! PR[40] 2K[0] 2G[17] 3K[9] 3G[3] 4A[3] 4Ü[0] 5A[0] 6K[0] 6G[0]
!! 7K[0] 7G[0] 8A[0] MEHR[0] SI[31] ABS[35] SR[17] SP[14]
!! ST[12] 2k[3] 2g[14] 3k[3] 3g[3] 4d[3] 4ü[0] 5d[3] 6k[0] 6g[0]
!! 7k[0] 7g[0] 8d[0] mehr[0] si[29] dm[+2] sr[17] sp[11]
!! 1F[27] 2F[62] 3F[11] 4F[0] LF[0] 2P[0] 3P[0] 4P[0] TRI[0] DF[3] AB[37]
!! TF[0] U3K[0] U3[0] U4[0] U4Ü[0] U5[6] U6K[0] U6[0] U7K[0] U7[0]
!! N1[22] N2K[0] N2[25] N3K[0] N3[19] N4[3] N4Ü[0] N5[19] N6K[0] N6[6]
!!!n7k: 0] N7[0] O1[0] O2K[0] O2[0] O3K[0] O3[0] HÖ[0
